;FLAVOR:UltiGCode
;TIME:3433
;MATERIAL:3824
;MATERIAL2:0
;NOZZLE_DIAMETER:0.000000
;NOZZLE_DIAMETER2:0.000000

;Layer count: 58
;LAYER:0
M107
G0 F9000 X83.480 Y91.335 Z0.300
;TYPE:SKIRT
G1 F1200 X146.520 Y91.335 E7.56480
G1 X146.520 Y133.665 E12.64440
G1 X83.480 Y133.665 E20.20920
G1 X83.480 Y91.335 E25.28880
G0 F9000 X83.880 Y91.735
G1 F1200 X146.120 Y91.735 E32.75760
G1 X146.120 Y133.265 E37.74120
G1 X83.880 Y133.265 E45.21000
G1 X83.880 Y91.735 E50.19360
G0 F9000 X84.280 Y92.135
G1 F1200 X145.720 Y92.135 E57.56640
G1 X145.720 Y132.865 E62.45400
G1 X84.280 Y132.865 E69.82680
G1 X84.280 Y92.135 E74.71440
G0 F9000 X84.680 Y92.535
G1 F1200 X145.320 Y92.535 E81.99120
G1 X145.320 Y132.465 E86.78280
G1 X84.680 Y132.465 E94.05960
G1 X84.680 Y92.535 E98.85120
G0 F9000 X85.080 Y92.935
G1 F1200 X144.920 Y92.935 E106.03200
G1 X144.920 Y132.065 E110.72760
G1 X85.080 Y132.065 E117.90840
G1 X85.080 Y92.935 E122.60400
G0 F9000 X85.480 Y93.335
G1 F1200 X144.520 Y93.335 E129.68880
G1 X144.520 Y131.665 E134.28840
G1 X85.480 Y131.665 E141.37320
G1 X85.480 Y93.335 E145.97280
G0 F9000 X85.880 Y93.735
G1 F1200 X144.120 Y93.735 E152.96160
G1 X144.120 Y131.265 E157.46520
G1 X85.880 Y131.265 E164.45400
G1 X85.880 Y93.735 E168.95760
G0 F9000 X86.280 Y94.135
G1 F1200 X143.720 Y94.135 E175.85040
G1 X143.720 Y130.865 E180.25800
G1 X86.280 Y130.865 E187.15080
G1 X86.280 Y94.135 E191.55840
G0 F9000 X86.680 Y94.535
G1 F1200 X143.320 Y94.535 E198.35520
G1 X143.320 Y130.465 E202.66680
G1 X86.680 Y130.465 E209.46360
G1 X86.680 Y94.535 E213.77520
G0 F9000 X87.080 Y94.935
G1 F1200 X142.920 Y94.935 E220.47600
G1 X142.920 Y130.065 E224.69160
G1 X87.080 Y130.065 E231.39240
G1 X87.080 Y94.935 E235.60800
G0 F9000 X87.480 Y95.335
G1 F1200 X142.520 Y95.335 E242.21280
G1 X142.520 Y129.665 E246.33240
G1 X87.480 Y129.665 E252.93720
G1 X87.480 Y95.335 E257.05680
G0 F9000 X87.880 Y95.735
G1 F1200 X142.120 Y95.735 E263.56560
G1 X142.120 Y129.265 E267.58920
G1 X87.880 Y129.265 E274.09800
G1 X87.880 Y95.735 E278.12160
G0 F9000 X88.280 Y96.135
G1 F1200 X141.720 Y96.135 E284.53440
G1 X141.720 Y128.865 E288.46200
G1 X88.280 Y128.865 E294.87480
G1 X88.280 Y96.135 E298.80240
G0 F9000 X88.680 Y96.535
G1 F1200 X141.320 Y96.535 E305.11920
G1 X141.320 Y128.465 E308.95080
G1 X88.680 Y128.465 E315.26760
G1 X88.680 Y96.535 E319.09920
G0 F9000 X89.080 Y96.935
G1 F1200 X140.920 Y96.935 E325.32000
G1 X140.920 Y128.065 E329.05560
G1 X89.080 Y128.065 E335.27640
G1 X89.080 Y96.935 E339.01200
G0 F9000 X89.480 Y97.335
G1 F1200 X140.520 Y97.335 E345.13680
G1 X140.520 Y127.665 E348.77640
G1 X89.480 Y127.665 E354.90120
G1 X89.480 Y97.335 E358.54080
G0 F9000 X89.880 Y97.735
G1 F1200 X140.120 Y97.735 E364.56960
G1 X140.120 Y127.265 E368.11320
G1 X89.880 Y127.265 E374.14200
G1 X89.880 Y97.735 E377.68560
G0 F9000 X90.280 Y98.135
G1 F1200 X139.720 Y98.135 E383.61840
G1 X139.720 Y126.865 E387.06600
G1 X90.280 Y126.865 E392.99880
G1 X90.280 Y98.135 E396.44640
G0 F9000 X90.680 Y98.535
G1 F1200 X139.320 Y98.535 E402.28320
G1 X139.320 Y126.465 E405.63480
G1 X90.680 Y126.465 E411.47160
G1 X90.680 Y98.535 E414.82320
G0 F9000 X91.080 Y98.935
G1 F1200 X138.920 Y98.935 E420.56400
G1 X138.920 Y126.065 E423.81960
G1 X91.080 Y126.065 E429.56040
G1 X91.080 Y98.935 E432.81600
G0 F9000 X91.880 Y99.735
;TYPE:WALL-INNER
G1 F1200 X138.120 Y99.735 E438.36480
G1 X138.120 Y125.265 E441.42840
G1 X91.880 Y125.265 E446.97720
G1 X91.880 Y99.735 E450.04080
G0 F9000 X91.480 Y99.335
;TYPE:WALL-OUTER
G1 F1200 X138.520 Y99.335 E455.68560
G1 X138.520 Y125.665 E458.84520
G1 X91.480 Y125.665 E464.49000
G1 X91.480 Y99.335 E467.64960
G0 F9000 X92.237 Y99.874
;TYPE:SKIN
G1 F900 X117.487 Y125.124 E471.93467
G0 F9000 X116.922 Y125.124
G1 F900 X92.020 Y100.222 E476.16068
G0 F9000 X92.020 Y100.788
G1 F900 X116.356 Y125.124 E480.29063
G0 F9000 X115.790 Y125.124
G1 F900 X92.020 Y101.353 E484.32462
G0 F9000 X92.020 Y101.919
G1 F900 X115.225 Y125.124 E488.26264
G0 F9000 X114.658 Y125.123
G1 F900 X92.020 Y102.485 E492.10444
G0 F9000 X92.020 Y103.050
G1 F900 X114.093 Y125.123 E495.85035
G0 F9000 X113.527 Y125.123
G1 F900 X92.020 Y103.616 E499.50021
G0 F9000 X92.020 Y104.182
G1 F900 X112.961 Y125.123 E503.05401
G0 F9000 X112.396 Y125.123
G1 F900 X92.020 Y104.747 E506.51193
G0 F9000 X92.020 Y105.313
G1 F900 X111.830 Y125.123 E509.87380
G0 F9000 X111.264 Y125.123
G1 F900 X92.020 Y105.879 E513.13962
G0 F9000 X92.020 Y106.445
G1 F900 X110.698 Y125.123 E516.30938
G0 F9000 X110.133 Y125.123
G1 F900 X92.020 Y107.010 E519.38326
G0 F9000 X92.020 Y107.576
G1 F900 X109.567 Y125.123 E522.36108
G0 F9000 X109.001 Y125.123
G1 F900 X92.020 Y108.142 E525.24285
G0 F9000 X92.020 Y108.707
G1 F900 X108.436 Y125.123 E528.02874
G0 F9000 X107.870 Y125.123
G1 F900 X92.020 Y109.273 E530.71858
G0 F9000 X92.020 Y109.839
G1 F900 X107.304 Y125.123 E533.31236
G0 F9000 X106.739 Y125.123
G1 F900 X92.020 Y110.404 E535.81025
G0 F9000 X92.020 Y110.970
G1 F900 X106.173 Y125.123 E538.21210
G0 F9000 X105.607 Y125.123
G1 F900 X92.020 Y111.536 E540.51789
G0 F9000 X92.020 Y112.101
G1 F900 X105.042 Y125.123 E542.72779
G0 F9000 X104.476 Y125.123
G1 F900 X92.020 Y112.667 E544.84165
G0 F9000 X92.020 Y113.233
G1 F900 X103.910 Y125.123 E546.85945
G0 F9000 X103.345 Y125.123
G1 F900 X92.020 Y113.798 E548.78136
G0 F9000 X92.020 Y114.364
G1 F900 X102.779 Y125.123 E550.60723
G0 F9000 X102.213 Y125.123
G1 F900 X92.020 Y114.930 E552.33704
G0 F9000 X92.020 Y115.495
G1 F900 X101.648 Y125.123 E553.97096
G0 F9000 X101.082 Y125.123
G1 F900 X92.020 Y116.061 E555.50883
G0 F9000 X92.020 Y116.627
G1 F900 X100.516 Y125.123 E556.95065
G0 F9000 X118.053 Y125.124
G1 F900 X92.803 Y99.874 E561.23572
G0 F9000 X93.369 Y99.874
G1 F900 X118.619 Y125.124 E565.52079
G0 F9000 X119.184 Y125.124
G1 F900 X93.934 Y99.874 E569.80585
G0 F9000 X94.500 Y99.874
G1 F900 X119.750 Y125.124 E574.09092
G0 F9000 X120.316 Y125.124
G1 F900 X95.066 Y99.874 E578.37599
G0 F9000 X95.631 Y99.874
G1 F900 X120.882 Y125.124 E582.66114
G0 F9000 X121.447 Y125.124
G1 F900 X96.197 Y99.874 E586.94621
G0 F9000 X96.763 Y99.874
G1 F900 X122.013 Y125.124 E591.23127
G0 F9000 X122.579 Y125.124
G1 F900 X97.329 Y99.874 E595.51634
G0 F9000 X97.894 Y99.874
G1 F900 X123.144 Y125.124 E599.80141
G0 F9000 X123.710 Y125.124
G1 F900 X98.460 Y99.874 E604.08648
G0 F9000 X99.026 Y99.874
G1 F900 X124.276 Y125.124 E608.37154
G0 F9000 X124.841 Y125.124
G1 F900 X99.591 Y99.874 E612.65661
G0 F9000 X100.157 Y99.874
G1 F900 X125.407 Y125.124 E616.94168
G0 F9000 X125.973 Y125.124
G1 F900 X100.723 Y99.874 E621.22674
G0 F9000 X101.288 Y99.874
G1 F900 X126.538 Y125.124 E625.51181
G0 F9000 X127.104 Y125.124
G1 F900 X101.854 Y99.874 E629.79688
G0 F9000 X102.420 Y99.874
G1 F900 X127.670 Y125.124 E634.08195
G0 F9000 X128.235 Y125.124
G1 F900 X102.985 Y99.874 E638.36701
G0 F9000 X103.551 Y99.874
G1 F900 X128.801 Y125.124 E642.65208
G0 F9000 X129.367 Y125.124
G1 F900 X104.117 Y99.874 E646.93715
G0 F9000 X104.682 Y99.874
G1 F900 X129.932 Y125.124 E651.22221
G0 F9000 X130.498 Y125.124
G1 F900 X105.248 Y99.874 E655.50728
G0 F9000 X105.814 Y99.874
G1 F900 X131.064 Y125.124 E659.79235
G0 F9000 X131.630 Y125.124
G1 F900 X106.379 Y99.874 E664.07750
G0 F9000 X106.945 Y99.874
G1 F900 X132.195 Y125.124 E668.36257
G0 F9000 X132.761 Y125.124
G1 F900 X107.511 Y99.874 E672.64763
G0 F9000 X108.077 Y99.874
G1 F900 X133.327 Y125.124 E676.93270
G0 F9000 X133.892 Y125.124
G1 F900 X108.642 Y99.874 E681.21777
G0 F9000 X109.208 Y99.874
G1 F900 X134.458 Y125.124 E685.50284
G0 F9000 X135.024 Y125.124
G1 F900 X109.774 Y99.874 E689.78790
G0 F9000 X110.339 Y99.874
G1 F900 X135.589 Y125.124 E694.07297
G0 F9000 X136.155 Y125.124
G1 F900 X110.905 Y99.874 E698.35804
G0 F9000 X111.471 Y99.874
G1 F900 X136.721 Y125.124 E702.64310
G0 F9000 X137.286 Y125.124
G1 F900 X112.036 Y99.874 E706.92817
G0 F9000 X112.602 Y99.874
G1 F900 X137.852 Y125.124 E711.21324
G0 F9000 X137.979 Y124.685
G1 F900 X113.168 Y99.874 E715.42380
G0 F9000 X113.733 Y99.874
G1 F900 X137.979 Y124.119 E719.53840
G0 F9000 X137.979 Y123.554
G1 F900 X114.299 Y99.874 E723.55703
G0 F9000 X114.865 Y99.874
G1 F900 X137.979 Y122.988 E727.47961
G0 F9000 X137.979 Y122.422
G1 F900 X115.430 Y99.874 E731.30621
G0 F9000 X115.996 Y99.874
G1 F900 X137.979 Y121.857 E735.03685
G0 F9000 X137.979 Y121.291
G1 F900 X116.562 Y99.874 E738.67144
G0 F9000 X117.127 Y99.874
G1 F900 X137.979 Y120.725 E742.21006
G0 F9000 X137.979 Y120.160
G1 F900 X117.693 Y99.874 E745.65270
G0 F9000 X118.259 Y99.874
G1 F900 X137.979 Y119.594 E748.99930
G0 F9000 X137.979 Y119.028
G1 F900 X118.825 Y99.874 E752.24984
G0 F9000 X119.390 Y99.874
G1 F900 X137.979 Y118.463 E755.40450
G0 F9000 X137.979 Y117.897
G1 F900 X119.956 Y99.874 E758.46310
G0 F9000 X120.522 Y99.874
G1 F900 X137.979 Y117.331 E761.42565
G0 F9000 X137.979 Y116.765
G1 F900 X121.087 Y99.874 E764.29224
G0 F9000 X121.653 Y99.874
G1 F900 X137.979 Y116.200 E767.06285
G0 F9000 X137.979 Y115.634
G1 F900 X122.219 Y99.874 E769.73741
G0 F9000 X122.784 Y99.874
G1 F900 X137.979 Y115.068 E772.31600
G0 F9000 X137.979 Y114.503
G1 F900 X123.350 Y99.874 E774.79863
G0 F9000 X123.916 Y99.874
G1 F900 X137.979 Y113.937 E777.18520
G0 F9000 X137.979 Y113.371
G1 F900 X124.481 Y99.874 E779.47580
G0 F9000 X125.047 Y99.874
G1 F900 X137.979 Y112.806 E781.67043
G0 F9000 X137.979 Y112.240
G1 F900 X125.613 Y99.874 E783.76901
G0 F9000 X126.178 Y99.874
G1 F900 X137.979 Y111.674 E785.77162
G0 F9000 X137.979 Y111.109
G1 F900 X126.744 Y99.874 E787.67827
G0 F9000 X127.310 Y99.874
G1 F900 X137.979 Y110.543 E789.48886
G0 F9000 X137.979 Y109.977
G1 F900 X127.876 Y99.874 E791.20339
G0 F9000 X128.441 Y99.874
G1 F900 X137.979 Y109.412 E792.82204
G0 F9000 X137.979 Y108.846
G1 F900 X129.007 Y99.874 E794.34464
G0 F9000 X129.573 Y99.874
G1 F900 X137.979 Y108.280 E795.77119
G0 F9000 X137.979 Y107.714
G1 F900 X130.138 Y99.874 E797.10177
G0 F9000 X130.704 Y99.874
G1 F900 X137.979 Y107.149 E798.33637
G0 F9000 X137.979 Y106.583
G1 F900 X131.270 Y99.874 E799.47493
G0 F9000 X131.835 Y99.874
G1 F900 X137.979 Y106.017 E800.51752
G0 F9000 X137.979 Y105.452
G1 F900 X132.401 Y99.874 E801.46413
G0 F9000 X132.967 Y99.874
G1 F900 X137.979 Y104.886 E802.31470
G0 F9000 X137.979 Y104.320
G1 F900 X133.532 Y99.874 E803.06929
G0 F9000 X134.098 Y99.874
G1 F900 X137.979 Y103.755 E803.72792
G0 F9000 X137.979 Y103.189
G1 F900 X134.664 Y99.874 E804.29050
G0 F9000 X135.229 Y99.874
G1 F900 X137.979 Y102.623 E804.75710
G0 F9000 X137.979 Y102.058
G1 F900 X135.795 Y99.874 E805.12774
G0 F9000 X136.361 Y99.874
G1 F900 X137.979 Y101.492 E805.40232
G0 F9000 X137.979 Y100.926
G1 F900 X136.926 Y99.874 E805.58094
G0 F9000 X137.492 Y99.874
G1 F900 X137.979 Y100.361 E805.66358
G0 F9000 X99.950 Y125.123
G1 F900 X92.020 Y117.193 E807.00935
G0 F9000 X92.020 Y117.758
G1 F900 X99.385 Y125.123 E808.25923
G0 F9000 X98.819 Y125.123
G1 F900 X92.020 Y118.324 E809.41306
G0 F9000 X92.020 Y118.890
G1 F900 X98.253 Y125.123 E810.47084
G0 F9000 X97.688 Y125.123
G1 F900 X92.020 Y119.455 E811.43273
G0 F9000 X92.020 Y120.021
G1 F900 X97.122 Y125.123 E812.29856
G0 F9000 X96.556 Y125.123
G1 F900 X92.020 Y120.587 E813.06835
G0 F9000 X92.020 Y121.152
G1 F900 X95.991 Y125.123 E813.74225
G0 F9000 X95.425 Y125.123
G1 F900 X92.020 Y121.718 E814.32010
G0 F9000 X92.020 Y122.284
G1 F900 X94.859 Y125.123 E814.80189
G0 F9000 X94.294 Y125.123
G1 F900 X92.020 Y122.849 E815.18780
G0 F9000 X92.020 Y123.415
G1 F900 X93.728 Y125.123 E815.47766
G0 F9000 X93.162 Y125.123
G1 F900 X92.020 Y123.981 E815.67146
G0 F9000 X92.020 Y124.546
G1 F900 X92.597 Y125.123 E815.76938
;LAYER:1
M106 S127
G0 F9000 X91.880 Y125.265 Z0.400
;TYPE:WALL-INNER
G1 F1800 X91.880 Y99.735 E816.79058
G1 X138.120 Y99.735 E818.64018
G1 X138.120 Y125.265 E819.66138
G1 X91.880 Y125.265 E821.51098
G0 F9000 X91.480 Y125.665
;TYPE:WALL-OUTER
G1 F1320 X91.480 Y99.335 E822.56418
G1 X138.520 Y99.335 E824.44578
G1 X138.520 Y125.665 E825.49898
G1 X91.480 Y125.665 E827.38058
G0 F9000 X92.020 Y124.920
;TYPE:SKIN
G1 F900 X117.065 Y99.874 E828.79737
G0 F9000 X116.500 Y99.874
G1 F900 X92.020 Y124.354 E830.18217
G0 F9000 X92.020 Y123.788
G1 F900 X115.934 Y99.874 E831.53495
G0 F9000 X115.368 Y99.874
G1 F900 X92.020 Y123.223 E832.85574
G0 F9000 X92.020 Y122.657
G1 F900 X114.803 Y99.874 E834.14454
G0 F9000 X114.237 Y99.874
G1 F900 X92.020 Y122.091 E835.40132
G0 F9000 X92.020 Y121.526
G1 F900 X113.671 Y99.874 E836.62612
G0 F9000 X113.105 Y99.874
G1 F900 X92.020 Y120.960 E837.81889
G0 F9000 X92.020 Y120.394
G1 F900 X112.540 Y99.874 E838.97968
G0 F9000 X111.974 Y99.874
G1 F900 X92.020 Y119.829 E840.10848
G0 F9000 X92.020 Y119.263
G1 F900 X111.408 Y99.874 E841.20526
G0 F9000 X110.843 Y99.874
G1 F900 X92.020 Y118.697 E842.27005
G0 F9000 X92.020 Y118.132
G1 F900 X110.277 Y99.874 E843.30285
G0 F9000 X109.711 Y99.874
G1 F900 X92.020 Y117.566 E844.30363
G0 F9000 X92.020 Y117.000
G1 F900 X109.146 Y99.874 E845.27242
G0 F9000 X108.580 Y99.874
G1 F900 X92.020 Y116.435 E846.20923
G0 F9000 X92.020 Y115.869
G1 F900 X108.014 Y99.874 E847.11401
G0 F9000 X107.449 Y99.874
G1 F900 X92.020 Y115.303 E847.98681
G0 F9000 X92.020 Y114.737
G1 F900 X106.883 Y99.874 E848.82759
G0 F9000 X106.317 Y99.874
G1 F900 X92.020 Y114.172 E849.63637
G0 F9000 X92.020 Y113.606
G1 F900 X105.752 Y99.874 E850.41317
G0 F9000 X105.186 Y99.874
G1 F900 X92.020 Y113.040 E851.15795
G0 F9000 X92.020 Y112.475
G1 F900 X104.620 Y99.874 E851.87075
G0 F9000 X104.055 Y99.874
G1 F900 X92.020 Y111.909 E852.55155
G0 F9000 X92.020 Y111.343
G1 F900 X103.489 Y99.874 E853.20033
G0 F9000 X102.923 Y99.874
G1 F900 X92.020 Y110.778 E853.81713
G0 F9000 X92.020 Y110.212
G1 F900 X102.357 Y99.874 E854.40191
G0 F9000 X101.792 Y99.874
G1 F900 X92.020 Y109.646 E854.95469
G0 F9000 X92.020 Y109.081
G1 F900 X101.226 Y99.874 E855.47549
G0 F9000 X100.660 Y99.874
G1 F900 X92.020 Y108.515 E855.96427
G0 F9000 X92.020 Y107.949
G1 F900 X100.095 Y99.874 E856.42106
G0 F9000 X117.631 Y99.874
G1 F900 X92.381 Y125.124 E857.84942
G0 F9000 X92.947 Y125.124
G1 F900 X118.197 Y99.874 E859.27778
G0 F9000 X118.762 Y99.874
G1 F900 X93.512 Y125.124 E860.70613
G0 F9000 X94.078 Y125.124
G1 F900 X119.328 Y99.874 E862.13449
G0 F9000 X119.894 Y99.874
G1 F900 X94.644 Y125.124 E863.56284
G0 F9000 X95.209 Y125.124
G1 F900 X120.459 Y99.874 E864.99120
G0 F9000 X121.025 Y99.874
G1 F900 X95.775 Y125.124 E866.41955
G0 F9000 X96.341 Y125.124
G1 F900 X121.591 Y99.874 E867.84791
G0 F9000 X122.156 Y99.874
G1 F900 X96.906 Y125.124 E869.27626
G0 F9000 X97.472 Y125.124
G1 F900 X122.722 Y99.874 E870.70462
G0 F9000 X123.288 Y99.874
G1 F900 X98.038 Y125.124 E872.13298
G0 F9000 X98.603 Y125.124
G1 F900 X123.853 Y99.874 E873.56133
G0 F9000 X124.419 Y99.874
G1 F900 X99.169 Y125.124 E874.98969
G0 F9000 X99.735 Y125.124
G1 F900 X124.985 Y99.874 E876.41804
G0 F9000 X125.551 Y99.874
G1 F900 X100.300 Y125.124 E877.84643
G0 F9000 X100.866 Y125.124
G1 F900 X126.116 Y99.874 E879.27478
G0 F9000 X126.682 Y99.874
G1 F900 X101.432 Y125.124 E880.70314
G0 F9000 X101.998 Y125.124
G1 F900 X127.248 Y99.874 E882.13149
G0 F9000 X127.813 Y99.874
G1 F900 X102.563 Y125.124 E883.55985
G0 F9000 X103.129 Y125.124
G1 F900 X128.379 Y99.874 E884.98821
G0 F9000 X128.945 Y99.874
G1 F900 X103.695 Y125.124 E886.41656
G0 F9000 X104.260 Y125.124
G1 F900 X129.510 Y99.874 E887.84492
G0 F9000 X130.076 Y99.874
G1 F900 X104.826 Y125.124 E889.27327
G0 F9000 X105.392 Y125.124
G1 F900 X130.642 Y99.874 E890.70163
G0 F9000 X131.207 Y99.874
G1 F900 X105.957 Y125.124 E892.12998
G0 F9000 X106.523 Y125.124
G1 F900 X131.773 Y99.874 E893.55834
G0 F9000 X132.339 Y99.874
G1 F900 X107.089 Y125.124 E894.98670
G0 F9000 X107.654 Y125.124
G1 F900 X132.904 Y99.874 E896.41505
G0 F9000 X133.470 Y99.874
G1 F900 X108.220 Y125.124 E897.84341
G0 F9000 X108.786 Y125.124
G1 F900 X134.036 Y99.874 E899.27176
G0 F9000 X134.602 Y99.874
G1 F900 X109.351 Y125.124 E900.70015
G0 F9000 X109.917 Y125.124
G1 F900 X135.167 Y99.874 E902.12850
G0 F9000 X135.733 Y99.874
G1 F900 X110.483 Y125.124 E903.55686
G0 F9000 X111.048 Y125.124
G1 F900 X136.299 Y99.874 E904.98524
G0 F9000 X136.864 Y99.874
G1 F900 X111.614 Y125.124 E906.41360
G0 F9000 X112.180 Y125.124
